!!!OTL: Haocaoge, Dayamizi
!!!ARE: Asia, China,ÿGansu, kangxian
!! I, 139
!!!SCT: C1422
!!!YEM: Copyright 1995, estate of Helmut Schaffrath.
**kern
*ICvox
*Ivox
*M2/4
*k[b-]
*F:
{8.cc
16dd
4gg
=1
16ff
16gg
8ff
16ff
8.dd
=2
16cc
8cc
16dd
8gg
16gg
16ff
=3
16dd
8dd
16ff
8gg
8ff
=4
8.ff
16dd
4cc}
=5
{8.cc
16dd
4gg
=6
16ff
16gg
8ff
16ff
8.dd
=7
16cc
8cc
16dd
8gg
16gg
16ff
=8
16dd
8dd
16ff
8dd
8ff
=9
16dd
16ff
8dd
4cc}
==
!!!AGN: Shange, Tiange
!!!ONB: ESAC (Essen Associative Code) Database: HUANG
!!!AMT: simple duple
!!!AIN: vox
!!!EED: Helmut Schaffrath
!!!EEV: 1.0
*-
